X:1
T:Symphony No. 1 in C Major
T:Symphony No. 1 in C Major
T:Third Movement
T:Ludwig van Beethoven
T:Arranged for piano by Franz Liszt
C:Ludwig van Beethoven
Z:Arranged for pinao by Franz Liszt
%%score { ( 1 3 6 ) | ( 2 4 5 ) }
L:1/8
Q:1/4=324
M:3/4
K:C
V:1 treble nm="Piano" snm="Pno."
V:3 treble 
V:6 treble 
V:2 bass 
V:4 bass 
V:5 bass 
V:1
"^Allegro molto e vivace"!p!"^MINUETTO" .[EG]2 | .[FA]4 .[DB]2 | .[Ec]4 .[Dd]2 | %3
 .[Ee]2 .[Ee]2 .[^F^f]2 | .[Gg]4"_cresc." .[^G^g]2 | .[Aa]4 .[Bb]2 | .[cc']4!f! .[^c^c']2 | %7
 .[dd']2 .[dd']2 .[dd']2 | .[Gg]2 z2 ::!p! .[Gg]2 | [_A_a]4 [Gg]2 | [_A_a]4 [Gg]2 | %12
 .[_A_a]2!f! .[A_ea]2 .[Afa]2 | [_A_a]2 [Gg]2!p! .[_E_e]2 | [Ff]4 [_E_e]2 | [Ff]4 [_E_e]2 | %16
 .[Ff]2!f! .[Fcf]2 .[Fdf]2 | [Ff]2 [_E_e]2 .[Cc]2 | .[_D_d]2!f! .[D_Ad]2 .[D_Bd]2 | %19
 [_D_d]2 [Cc]2 [_A,_A]2 |!ff! [_B,_B]2 [B,_DB]2 [B,DB]2 | [_B,_D_B]2 [B,DB]2 [C_EB]2 | %22
 _B2!ff! _A2 F2 | _A2!ff! _G2 _E2 | _G2!ff! F2 _D2 | F2!ff! _E2 C2 | _D2 z2!p! .[_e_g]2 | %27
 .[_e_g]2 .[eg]2 .[eg]2 | [_e_g]2 [_df]2 ._e'2 | ._e'2 .e'2 .e'2 | _e'2 _d'2 .[_e_g]2 | %31
 .[_e_g]2 .[eg]2 .[eg]2 | [_e_g]2 [_df]2 ._e'2 | ._e'2 .e'2 .e'2 | [f_d']2 z2 z2 | %35
!pp! [_DF]2 [DF]2 [DF]2 | x4 =A2 | _B6 | x6 | x6 | x4 _B2 | _c6 |"_cresc." [=E=G]2 [EG]2 [EG]2 | %43
 [EG]2 [EG]2 [EG]2 | [EG]2 [EG]2 [EG]2 | [EG]2 [EG]2!f! .[Geg]2 | .[Afa]4 .[Bdb]2 | %47
 .[cec']4 .[dgd']2 | .[ec'e']2 .[ec'e']2 .[^fc'^f']2 | [gg']4!ff! .[^G^g]2 | .[=GAa]4 .[B=gb]2 | %51
 .[cgc']4 .[dgd']2 | .[ege']2 .[ec'e']2 .[^fc'^f']2 | .[gg']4 .[cc']2 | %54
 .[dd']2 .[d_bd']2 .[ebe']2 | [fc'f']4 .[Gcg]2 | .[Aca]2 .[Afa]2 .[Bfb]2 | g2!ff! e2 .[Aca]2 | %58
 g4 .[DFB]2 | .[CEc]2 z2 .[Cc]2 | [_D_d]4 [B,B]2 | .[Cc]2 z2 .[cc']2 | [=d=d']4 [Bb]2 | %63
 .[cc']2 _d2!ff! =B2 | .c2 [=d=d']2!ff! [Bb]2 | .[cc']2 _d2!ff! B2 | .c2 [=d=d']2!ff! [Bb]2 | %67
!p! .[cc']2 .e2[Q:1/4=224]"^ten." g2- |[Q:1/4=324] g2 .a2[Q:1/4=224]"^ten." b2- | %69
[Q:1/4=324] b2 .c'2[Q:1/4=224]"^ten." g2- |[Q:1/4=324] g2 .f2 .d2 |"_cresc." .c2 [Ee]2 [Gg]2- | %72
 [Gg]2 .[Aa]2 [Bb]2- | [Bb]2 .[cc']2 [Gg]2- | [Gg]2 .[Ff]2 .[Dd]2 |!f! .[EGc]2 .[Ee]2 [Gg]2- | %76
!f! [Gg]2 .[Ff]2 .[Dd]2 | .[EGc]2 .[Ee]2 [Gg]2- | [Gg]2 .[Afa]2 .[Bdb]2 | .[cc']2 .[Gg]2 .[Ee]2 | %80
 [Cc]2 z2 ::[M:3/4]!p!"^Trio" G2 | .[EGce]4 .[EGce]2 | .[EGce]4 .[EGce]2 | .[EGce]4 .[EGce]2 | %85
 .[EGce]4 .[EGce]2 | .[EGce]6- | cBABcd | eBcdef | g^fg=fed | c2 z2 z2 | .[EAce]4 .[EAce]2 | %92
 .[EAce]4 .[EAce]2 | .[EAce]4 .[EAce]2 | [FAf]6- | dAB^cde | f^cdefg | agfed=c | B2 z2 z2 | %99
 z ^fgf .g2 | .[=fb]4 .[fb]2 | g^fgf .e2 | z2 d'^c'd'c' | d'2 d^cd^c | d!p!e^fgaf | .[Bg]2 z2 :: %106
!p! G2 | .[B=f]4 .[Bf]2 | .[Bf]4 .[Bf]2 | z2 fefe | .f2 agfe | d2 x4 | .[Bf]4 .[Bf]2 | z2 d^cdc | %114
 .d2 fed=c | B2 z2 .[Bf]2 | .[Bf]2 agfe | .d2 z2 .[Bf]2 | .[Bf]2 fedc | .B2 z2!pp! .[Bf]2 | %120
 .[Bf]2 agfe | .d2 agfe | .d2 agfe | .d2!<(! fedc!<)! |!mp!!>(! z2 z2!>)!!p! G2 | .[ce]4 .[ce]2 | %126
 .[Ece]4 .[Ece]2 |!p!!<(! [cec']4 [cec']2 | [ec'e']4 [ec'e']2!<)! |!ff! .[EGce]4 .[EGce]2 | %130
 a!ff!^gafcA | !>![=Gce=g]4 .[Gceg]2 | G!ff!^FGABG | !>![EGce]4 .[EGce]2 | a!ff!^gafcA | %135
 !>![=Gce=g]4 .[Gceg]2 | G!ff!^FGABG | .c2 g!ff!abg | c'2 g!ff!^fgf | g!ff!abc'd'b |1 %140
 [cec']2 z2 :|2 [cec']2 z2!p! .[Gg]2 | [_A_a]4 [Gg]2 | [_A_a]4 [Gg]2 | %144
 .[_A_a]2!f! .[A_ea]2 .[Afa]2 | [_A_a]2 [Gg]2!p! .[_E_e]2 | [Ff]4 [_E_e]2 | [Ff]4 [_E_e]2 | %148
 .[Ff]2!f! .[Fcf]2 .[Fdf]2 | [Ff]2 [_E_e]2 .[Cc]2 | .[_D_d]2!f! .[D_Ad]2 .[D_Bd]2 | %151
 [_D_d]2 [Cc]2 [_A,_A]2 |!ff! [_B,_B]2 [B,_DB]2 [B,DB]2 | [_B,_D_B]2 [B,DB]2 [C_EB]2 | %154
 _B2!ff! _A2 F2 | _A2!ff! _G2 _E2 | _G2!ff! F2 _D2 | F2!ff! _E2 C2 | _D2 z2!p! .[_e_g]2 | %159
 .[_e_g]2 .[eg]2 .[eg]2 | [_e_g]2 [_df]2 ._e'2 | ._e'2 .e'2 .e'2 | _e'2 _d'2 .[_e_g]2 | %163
 .[_e_g]2 .[eg]2 .[eg]2 | [_e_g]2 [_df]2 ._e'2 | ._e'2 .e'2 .e'2 | [f_d']2 z2 z2 | %167
!pp! [_DF]2 [DF]2 [DF]2 | x4 =A2 | _B6 | x6 | x6 | x4 _B2 | _c6 |"_cresc." [=E=G]2 [EG]2 [EG]2 | %175
 [EG]2 [EG]2 [EG]2 | [EG]2 [EG]2 [EG]2 | [EG]2 [EG]2!f! .[Geg]2 | .[Afa]4 .[Bdb]2 | %179
 .[cec']4 .[dgd']2 | .[ec'e']2 .[ec'e']2 .[^fc'^f']2 | [gg']4!ff! .[^G^g]2 | .[=GAa]4 .[B=gb]2 | %183
 .[cgc']4 .[dgd']2 | .[ege']2 .[ec'e']2 .[^fc'^f']2 | .[gg']4 .[cc']2 | %186
 .[dd']2 .[d_bd']2 .[ebe']2 | [fc'f']4 .[Gcg]2 | .[Aca]2 .[Afa]2 .[Bfb]2 | g2!ff! e2 .[Aca]2 | %190
 g4 .[DFB]2 | .[CEc]2 z2 .[Cc]2 | [_D_d]4 [B,B]2 | .[Cc]2 z2 .[cc']2 | [=d=d']4 [Bb]2 | %195
 .[cc']2 _d2!ff! =B2 | .c2 [=d=d']2!ff! [Bb]2 | .[cc']2 _d2!ff! B2 | .c2 [=d=d']2!ff! [Bb]2 | %199
!p! .[cc']2 .e2[Q:1/4=224]"^ten." g2- |[Q:1/4=324] g2 .a2[Q:1/4=224]"^ten." b2- | %201
[Q:1/4=324] b2 .c'2[Q:1/4=224]"^ten." g2- |[Q:1/4=324] g2 .f2 .d2 |"_cresc." .c2 [Ee]2 [Gg]2- | %204
 [Gg]2 .[Aa]2 [Bb]2- | [Bb]2 .[cc']2 [Gg]2- | [Gg]2 .[Ff]2 .[Dd]2 |!f! .[EGc]2 .[Ee]2 [Gg]2- | %208
!f! [Gg]2 .[Ff]2 .[Dd]2 | .[EGc]2 .[Ee]2 [Gg]2- | [Gg]2 .[Afa]2 .[Bdb]2 | .[cc']2 .[Gg]2 .[Ee]2 | %212
 [Cc]2 z2 z2 |] %213
V:2
 z2 | .C,2 .C2 .C2 | .C2 .C2 .[B,,B,]2 | .[C,C]2 .[A,,A,]2 .[D,D]2 | %4
 .[B,,B,]2 .[G,,G,]2 .[E,,E,]2 | .[F,,F,]2 .[D,,D,]2 .[G,,G,]2 | .[E,,E,]2 .[C,,C,]2 .[^C,,^C,]2 | %7
!ped! .[D,,D,]2 .[D,D]2 .[D,D]2!ped-up! | .[G,,G,]2 z2 :: z2 | z2 [C_E]2 [B,D]2 | %11
 z2 [C_E]2 [B,D]2 | z2 .[C,C]2 .[D,D]2 | .[_E,_B,_E]2 z2 z2 | z2 [_A,C]2 [G,_B,]2 | %15
 z2 [_A,C]2 [G,_B,]2 | z2 .[=A,,=A,]2 [=B,,=B,]2 | [C,G,C]2 C,2 z2 | z2 .[F,,F,]2 .[G,,G,]2 | %19
 .[_A,,_E,_A,]2 .A,,2 z2 | z2 [_G,,_D,_G,]2 [G,,D,G,]2 | [_G,,_D,_G,]2 [G,,D,G,]2 [G,,G,]2 | %22
 !>![F,,F,]2 z2 z2 | [_G,,_G,]2 z2 z2 | [_A,,,_A,,]2 z2 z2 | [_A,,,_A,,]2 z2 z2 | [_D,,_D,]4 _A,2 | %27
 _B,4 z2 | _D4 ._G2 | ._G2 .G2 .G2 | _G2 F2 _A,2 | _B,4 z2 | _D4 ._G2 | ._G2 .G2 .G2 | %34
 .[_DF]2!pp! .[DF]2 .[DF]2 | z2 z2!p! =A,,2 | z2 z2 =A,2 | _B,6 | z6 | z2 z2 _B,,2 | z2 z2 _B,2 | %41
 _C6 | z6 | z2 z2!mp! [B,,,B,,]2 |!mf! !^![C,,C,]6- | [C,,C,]4 .[C,,C,]2 | %46
 .[C,,C,]2 .[C,C]2 .[C,C]2 | .[C,C]2 .[C,C]2 .[B,,B,]2 | .[C,C]2 .[A,,A,]2 .[D,D]2 | %49
 .[B,,B,]2 .[G,,G,]2 .[E,,E,]2 | .[F,,F,]2 .[D,,D,]2 .[G,,G,]2 | .[E,,E,]2 .[C,,C,]2 .[B,,,B,,]2 | %52
 .[C,,C,]2 .[A,,,A,,]2 .[D,,D,]2 | .[B,,,B,,]2!ff! .[G,,,G,,]2 .[A,,,A,,]2 | %54
 .[_B,,,_B,,]2 .[G,,,G,,]2 .[C,,C,]2 | .[A,,,A,,]2!ff! .[F,,,F,,]2 .[E,,E,]2 | %56
 .[F,,F,]2 .[D,,D,]2 .[G,,G,]2 | .[E,,E,]2 .[C,,C,]2 .[F,,F,]2 | [G,,G,]2 .[G,,G,]2 .[G,,G,]2 | %59
 .[C,,C,]2 .[C,,C,]2 .[C,E,G,]2 | [F,_A,]6 | [E,G,]2 z2 [E,G,C]2 | [F,_A,=D]6 | [E,G,C]2 x2 =B,2 | %64
 .[C,E,G,]2 [C,-F,_A,=D]4 | .[C,E,G,C]2 z2 B,2 | .[C,E,G,]2 [C,-F,_A,=D]4 | .[C,E,G,C]2 z2 z2 | %68
 .[G,DG]2 z2 z2 | .[CEG]2 z2 z2 | .[G,DF]2 z2 z2 | .[C,G,C]2 z2 z2!ped! | %72
 .[G,DF]2!ped-up! z2 z2!ped! | .[G,CE]2!ped-up! z2 z2!ped! | .[G,B,D]2!ped-up! z2 z2 | %75
 .[C,G,C]2 z2 z2!ped! | .[G,B,D]2!ped-up! z2 z2 | .[C,G,C]2 z2 z2 | .[G,,G,]2 .[G,,G,]2 .[G,,G,]2 | %79
 [C,C]2 .[G,,G,]2 .[E,,E,]2 |!ped! [C,,C,]2 z2!ped-up! ::[M:3/4] z2 |!ped! .[C,E,C]4 .[C,E,C]2 | %83
 .[C,E,C]4 .[C,E,C]2 | .[C,E,C]4 .[C,E,C]2 | .[C,E,C]4 .[C,E,C]2!ped-up! |!ped! .[C,E,C]6- | %87
 [C,E,C]6-!ped-up! |!ped! [C,E,C]6-!ped-up! |!ped! [C,E,C]6!ped-up! |!ped! .[A,,C]4 .[A,,C]2 | %91
 .[A,,C]4 .[A,,C]2 | .[A,,C]4 .[A,,C]2 | .[A,,C]4 .[A,,A,]2!ped-up! |!ped! [D,A,]6- | %95
 [D,A,]6-!ped-up! |!ped! [D,A,]6-!ped-up! |!ped! [D,A,]6!ped-up! |!ped! F2 x4!ped-up! | %99
!ped! [CE]6!ped-up! |!ped! .[G,D]4 .[G,D]2!ped-up! |!ped! [E,C]4[K:treble] [CA]2!ped-up! | %102
!ped! .[DG]4 .[DB]2!ped-up! |!ped! .[Dc]4 .[D^F]2!ped-up! |!ped! DE^FGAF!ped-up! | .G2 z2 :: z2 | %107
[K:bass]!ped! .[G,D]4 .[G,D]2 | .[G,D]4 .[G,D]2!ped-up! | [G,D]2!ped! z2 z2!ped-up! | %110
 z6!ped!!ped-up! |!ped! .[G,D]4 .[G,D]2 | .[G,D]4 .[G,D]2!ped-up! | [G,D]2!ped! z2 z2!ped-up! | %114
 z6!ped!!ped-up! | z2 z2!ped! .[G,D]2 | .[G,D]2 z2 z2!ped-up! | z2 z2!ped! .[G,D]2 | %118
 .[G,D]2 z2 z2!ped-up! | z2 z2!ped! .[G,D]2 | .[G,D]2 z2 z2!ped-up! | z6 | z6 | z6 | %124
[K:treble] BAGFED |[K:bass]!ped! C2 x4 | .[C,G,C]4 .[C,G,C]2!ped-up! |!ped! C,,C,C,,C,C,,C, | %128
 C,,C,C,,C,C,,C,!ped-up! | [C,E,G,C]4 [C,E,G,C]2 |!ped! !>![F,,C,F,]6!ped-up! | %131
 !>![G,,C,E,G,]4 .[G,,C,E,G,]2 |!ped! G,^F,G,A,B,G,!ped-up! | !>![C,E,G,C]4 .[C,E,G,C]2 | %134
!ped! !>![F,,C,F,]6!ped-up! | !>![G,,C,E,G,]4 .[G,,C,E,G,]2 |!ped! G,^F,G,A,B,G,!ped-up! | %137
 .C2 [G,DG]4 | [C,C]2 [G,DFG]4 |!ped! .[G,B,DG]2 .[G,,B,,D,G,]2 .[G,,B,,D,G,]2!ped-up! |1 %140
!ped! [C,E,G,C]2 z2!ped-up! :|2!ped! [C,E,G,C]2 z2!ped-up! z2 | z2 [C_E]2 [B,D]2 | %143
 z2 [C_E]2 [B,D]2 | z2 .[C,C]2 .[D,D]2 | .[_E,_B,_E]2 z2 z2 | z2 [_A,C]2 [G,_B,]2 | %147
 z2 [_A,C]2 [G,_B,]2 | z2 .[=A,,=A,]2 [=B,,=B,]2 | [C,G,C]2 C,2 z2 | z2 .[F,,F,]2 .[G,,G,]2 | %151
 .[_A,,_E,_A,]2 .A,,2 z2 | z2 [_G,,_D,_G,]2 [G,,D,G,]2 | [_G,,_D,_G,]2 [G,,D,G,]2 [G,,G,]2 | %154
 !>![F,,F,]2 z2 z2 | [_G,,_G,]2 z2 z2 | [_A,,,_A,,]2 z2 z2 | [_A,,,_A,,]2 z2 z2 | [_D,,_D,]4 _A,2 | %159
 _B,4 z2 | _D4 ._G2 | ._G2 .G2 .G2 | _G2 F2 _A,2 | _B,4 z2 | _D4 ._G2 | ._G2 .G2 .G2 | %166
 .[_DF]2!pp! .[DF]2 .[DF]2 | z2 z2!p! =A,,2 | z2 z2 =A,2 | _B,6 | z6 | z2 z2 _B,,2 | z2 z2 _B,2 | %173
 _C6 | z6 | z2 z2!mp! [B,,,B,,]2 |!mf! !^![C,,C,]6- | [C,,C,]4 .[C,,C,]2 | %178
 .[C,,C,]2 .[C,C]2 .[C,C]2 | .[C,C]2 .[C,C]2 .[B,,B,]2 | .[C,C]2 .[A,,A,]2 .[D,D]2 | %181
 .[B,,B,]2 .[G,,G,]2 .[E,,E,]2 | .[F,,F,]2 .[D,,D,]2 .[G,,G,]2 | .[E,,E,]2 .[C,,C,]2 .[B,,,B,,]2 | %184
 .[C,,C,]2 .[A,,,A,,]2 .[D,,D,]2 | .[B,,,B,,]2!ff! .[G,,,G,,]2 .[A,,,A,,]2 | %186
 .[_B,,,_B,,]2 .[G,,,G,,]2 .[C,,C,]2 | .[A,,,A,,]2!ff! .[F,,,F,,]2 .[E,,E,]2 | %188
 .[F,,F,]2 .[D,,D,]2 .[G,,G,]2 | .[E,,E,]2 .[C,,C,]2 .[F,,F,]2 | [G,,G,]2 .[G,,G,]2 .[G,,G,]2 | %191
 .[C,,C,]2 .[C,,C,]2 .[C,E,G,]2 | [F,_A,]6 | [E,G,]2 z2 [E,G,C]2 | [F,_A,=D]6 | [E,G,C]2 x2 =B,2 | %196
 .[C,E,G,]2 [C,-F,_A,=D]4 | .[C,E,G,C]2 z2 B,2 | .[C,E,G,]2 [C,-F,_A,=D]4 | .[C,E,G,C]2 z2 z2 | %200
 .[G,DG]2 z2 z2 | .[CEG]2 z2 z2 | .[G,DF]2 z2 z2 | .[C,G,C]2 z2 z2!ped! | %204
 .[G,DF]2!ped-up! z2 z2!ped! | .[G,CE]2!ped-up! z2 z2!ped! | .[G,B,D]2!ped-up! z2 z2 | %207
 .[C,G,C]2 z2 z2!ped! | .[G,B,D]2!ped-up! z2 z2 | .[C,G,C]2 z2 z2 | .[G,,G,]2 .[G,,G,]2 .[G,,G,]2 | %211
 [C,C]2 .[G,,G,]2 .[E,,E,]2 | [C,,C,]2 z2 z2 |] %213
V:3
 x2 | x6 | x6 | x6 | x6 | x6 | x6 | x6 | x4 :: x2 | x6 | x6 | x6 | x6 | x6 | x6 | x6 | x6 | x6 | %19
 x6 | x6 | x6 | [_DF]2 x4 | [_B,_E]2 x4 | [_A,_D]2 x4 | [_G,C]2 x4 | F,2 x2 x2 | x6 | z4 [_e_g]2 | %29
 [_e_g]2 [eg]2 [eg]2 | [_e_g]2 [_df]2 x2 | x6 | x4 [_e_g]2 | [_e_g]2 [eg]2 [eg]2 | x6 | x6 | %36
 [_DF]2 [DF]2 [DF]2 | [_DF]2 [DF]2 [=DF]2 | [_E_G]2 [EG]2 [EG]2 | [_E_G]2 [EG]2 [EG]2 | %40
 [_E_G]2 [EG]2 [EG]2 | [_E_G]2 [EG]2 [EG]2 | x6 | x4 B,2 | C6 | x6 | x6 | x6 | x6 | x6 | x6 | x6 | %52
 x6 | x6 | x6 | x6 | x6 | [cc']4 x2 | [Ge]2 [Ec]2 x2 | x6 | x6 | x6 | x6 | x2 _D2 x2 | C2 x4 | %65
 x2 _D2 x2 | C2 x4 | x6 | .[Bf]2 x4 | .[ce]2 x4 | .[GB]2 x4 | [EG]2 x4 | [Bf]2 x4 | e2 x4 | %74
 [Bd]2 x4 | x6 | [Bd]2 x4 | x6 | x6 | x6 | x4 ::[M:3/4] x2 | x6 | x6 | x6 | x6 | x6 | CG,A,B,CD | %88
 EB,CDEF | G^FG=FED | C2 x2 x2 | x6 | x6 | x6 | x6 | DA,B,^CDE | F^CDEFG | AGFED=C | %98
 .[Bf]4 .[Bf]2 | [ce]6 | x6 | .[ec']4 [ca]2 | [Bg]4 [dg]2 | ^f4 [=cf]2 | [ca]6 | x4 :: x2 | x6 | %108
 x6 | [Bf]2 x4 | x6 | .[Bf]4 .[Bf]2 | x6 | [Bf]2 x4 | x6 | x6 | x6 | x6 | x6 | x6 | x6 | x6 | x6 | %123
 x6 | x6 | x6 | x6 | x6 | x6 | x6 | [Ac]6 | x6 | [B,FB]4 x2 | x6 | [Ac]6 | x6 | [B,FB]4 x2 | %137
 E2 [Bf]4 | [ce]2 [Bb]4 | [dd']4 z2 |1 x4 :|2 x6 | x6 | x6 | x6 | x6 | x6 | x6 | x6 | x6 | x6 | %151
 x6 | x6 | x6 | [_DF]2 x4 | [_B,_E]2 x4 | [_A,_D]2 x4 | [_G,C]2 x4 | F,2 x2 x2 | x6 | z4 [_e_g]2 | %161
 [_e_g]2 [eg]2 [eg]2 | [_e_g]2 [_df]2 x2 | x6 | x4 [_e_g]2 | [_e_g]2 [eg]2 [eg]2 | x6 | x6 | %168
 [_DF]2 [DF]2 [DF]2 | [_DF]2 [DF]2 [=DF]2 | [_E_G]2 [EG]2 [EG]2 | [_E_G]2 [EG]2 [EG]2 | %172
 [_E_G]2 [EG]2 [EG]2 | [_E_G]2 [EG]2 [EG]2 | x6 | x4 B,2 | C6 | x6 | x6 | x6 | x6 | x6 | x6 | x6 | %184
 x6 | x6 | x6 | x6 | x6 | [cc']4 x2 | [Ge]2 [Ec]2 x2 | x6 | x6 | x6 | x6 | x2 _D2 x2 | C2 x4 | %197
 x2 _D2 x2 | C2 x4 | x6 | .[Bf]2 x4 | .[ce]2 x4 | .[GB]2 x4 | [EG]2 x4 | [Bf]2 x4 | e2 x4 | %206
 [Bd]2 x4 | x6 | [Bd]2 x4 | x6 | x6 | x6 | x4 x2 |] %213
V:4
 x2 | x6 | x6 | x6 | x6 | x6 | x6 | x6 | x4 :: x2 | x6 | x6 | x6 | x6 | x6 | x6 | x6 | x6 | x6 | %19
 x6 | x6 | x6 | x6 | x6 | x6 | x6 | x6 | _D,6- | D,6- | D,6- | D,6 | _D,6- | D,6- | D,6- | D,2 x4 | %35
 x6 | _B,,6 | x6 | x6 | x6 | _C,6 | x6 | x6 | x6 | x6 | x6 | x6 | x6 | x6 | x6 | x6 | x6 | x6 | %53
 x6 | x6 | x6 | x6 | x6 | x6 | x6 | C,2!ff! C,2 C,2 | C,2 C,2 C,2 | C,2!ff! C,2 C,2 | %63
 C,2 [C,F,_A,]4 | x6 | x2 [C,F,_A,]4 | x6 | x6 | x6 | x6 | x6 | x4 x x/ G,,/ | x2 x2 x x/ C,/ | %73
 x2 x2 x x/ G,,/ | x6 | x2 x2 x x/ G,,/ | x6 | x6 | x6 | x6 | x4 ::[M:3/4] x2 | x6 | x6 | x6 | x6 | %86
 x6 | x6 | x6 | x6 | x6 | x6 | x6 | x6 | x6 | x6 | x6 | x6 | [G,D]4 [G,D]2 | x6 | x6 | %101
 x4[K:treble] x2 | x6 | x6 | [G,D]6 | .[G,D]2 x2 :: x2 |[K:bass] x6 | x6 | x6 | x6 | x6 | x6 | x6 | %114
 x6 | x6 | x6 | x6 | x6 | x6 | x6 | x6 | x6 | x6 |[K:treble] x6 |[K:bass] .[C,G,]4 .[C,G,]2 | x6 | %127
 x6 | x6 | x6 | x6 | x6 | [G,,D,]4 x2 | x6 | x6 | x6 | [G,,D,]6 | C,2 x4 | x6 | x6 |1 x4 :|2 x6 | %142
 x6 | x6 | x6 | x6 | x6 | x6 | x6 | x6 | x6 | x6 | x6 | x6 | x6 | x6 | x6 | x6 | x6 | _D,6- | %160
 D,6- | D,6- | D,6 | _D,6- | D,6- | D,6- | D,2 x4 | x6 | _B,,6 | x6 | x6 | x6 | _C,6 | x6 | x6 | %175
 x6 | x6 | x6 | x6 | x6 | x6 | x6 | x6 | x6 | x6 | x6 | x6 | x6 | x6 | x6 | x6 | x6 | %192
 C,2!ff! C,2 C,2 | C,2 C,2 C,2 | C,2!ff! C,2 C,2 | C,2 [C,F,_A,]4 | x6 | x2 [C,F,_A,]4 | x6 | x6 | %200
 x6 | x6 | x6 | x4 x x/ G,,/ | x2 x2 x x/ C,/ | x2 x2 x x/ G,,/ | x6 | x2 x2 x x/ G,,/ | x6 | x6 | %210
 x6 | x6 | x6 |] %213
V:5
 x2 | x6 | x6 | x6 | x6 | x6 | x6 | x6 | x4 :: x2 | x6 | x6 | x6 | x6 | x6 | x6 | x6 | x6 | x6 | %19
 x6 | x6 | x6 | x6 | x6 | x6 | x6 | x6 | x6 | x4 _A,2 | _B,4 C2 | _D4 x2 | x6 | x4 _A,2 | _B,4 C2 | %34
 x6 | x6 | x6 | x6 | x6 | x6 | x6 | x6 | x6 | x6 | x6 | x6 | x6 | x6 | x6 | x6 | x6 | x6 | x6 | %53
 x6 | x6 | x6 | x6 | x6 | x6 | x6 | x6 | x6 | x6 | x6 | x6 | x6 | x6 | x6 | x6 | x6 | x6 | x6 | %72
 x6 | x6 | x6 | x6 | x6 | x6 | x6 | x6 | x4 ::[M:3/4] x2 | x6 | x6 | x6 | x6 | x6 | x6 | x6 | x6 | %90
 x6 | x6 | x6 | x6 | x6 | x6 | x6 | x6 | x6 | x6 | x6 | x4[K:treble] x2 | x6 | x6 | x6 | x4 :: x2 | %107
[K:bass] x6 | x6 | x6 | x6 | x6 | x6 | x6 | x6 | x6 | x6 | x6 | x6 | x6 | x6 | x6 | x6 | x6 | %124
[K:treble] x6 |[K:bass] x6 | x6 | x6 | x6 | x6 | x6 | x6 | x6 | x6 | x6 | x6 | x6 | x6 | x6 | x6 |1 %140
 x4 :|2 x6 | x6 | x6 | x6 | x6 | x6 | x6 | x6 | x6 | x6 | x6 | x6 | x6 | x6 | x6 | x6 | x6 | x6 | %159
 x6 | x4 _A,2 | _B,4 C2 | _D4 x2 | x6 | x4 _A,2 | _B,4 C2 | x6 | x6 | x6 | x6 | x6 | x6 | x6 | x6 | %174
 x6 | x6 | x6 | x6 | x6 | x6 | x6 | x6 | x6 | x6 | x6 | x6 | x6 | x6 | x6 | x6 | x6 | x6 | x6 | %193
 x6 | x6 | x6 | x6 | x6 | x6 | x6 | x6 | x6 | x6 | x6 | x6 | x6 | x6 | x6 | x6 | x6 | x6 | x6 | %212
 x6 |] %213
V:6
 x2 | x6 | x6 | x6 | x6 | x6 | x6 | x6 | x4 :: x2 | x6 | x6 | x6 | x6 | x6 | x6 | x6 | x6 | x6 | %19
 x6 | x6 | x6 | x6 | x6 | x6 | x6 | x6 | x6 | x6 | x6 | x6 | x6 | x6 | x6 | x6 | x6 | x6 | x6 | %38
 x6 | x6 | x6 | x6 | x6 | x6 | x6 | x6 | x6 | x6 | x6 | x6 | x6 | x6 | x6 | x6 | x6 | x6 | x6 | %57
 x6 | x6 | x6 | x6 | x6 | x6 | x6 | x6 | x6 | x6 | x6 | x6 | x6 | x6 | x6 | x6 | x6 | x6 | x6 | %76
 x6 | x6 | x6 | x6 | x4 ::[M:3/4] x2 | x6 | x6 | x6 | x6 | x6 | [EGce]6- | [EGce]6- | [EGce]6 | %90
 .[EAce]4 .[EAce]2 | x6 | x6 | x6 | x6 | [FAf]6- | [FAf]6- | [FAf]6 | x6 | x6 | x6 | x6 | x6 | x6 | %104
 x6 | x4 :: x2 | x6 | x6 | x6 | x6 | x6 | x6 | x6 | x6 | x6 | x6 | x6 | x6 | x6 | x6 | x6 | x6 | %123
 x6 | x6 | x6 | x6 | x6 | x6 | x6 | x6 | x6 | x6 | x6 | x6 | x6 | x6 | x6 | x6 | x6 |1 x4 :|2 x6 | %142
 x6 | x6 | x6 | x6 | x6 | x6 | x6 | x6 | x6 | x6 | x6 | x6 | x6 | x6 | x6 | x6 | x6 | x6 | x6 | %161
 x6 | x6 | x6 | x6 | x6 | x6 | x6 | x6 | x6 | x6 | x6 | x6 | x6 | x6 | x6 | x6 | x6 | x6 | x6 | %180
 x6 | x6 | x6 | x6 | x6 | x6 | x6 | x6 | x6 | x6 | x6 | x6 | x6 | x6 | x6 | x6 | x6 | x6 | x6 | %199
 x6 | x6 | x6 | x6 | x6 | x6 | x6 | x6 | x6 | x6 | x6 | x6 | x6 | x6 |] %213

